X: 5
M:6/8
L:1/8
K:D
|:e|fed AFA|BFB A2f|gfe ABc|dcB A2A|fed AFA|BFB A2A| gfe ABc|d3 d2:|



